assets/Person getting massage/Dark/Flat/person_getting_massage_flat_dark.svg

<svg width="32" height="32" viewBox="0 0 32 32" fill="none" xmlns="http://www.w3.org/2000/svg">
<path d="M23 14.45C23 15.4164 22.2165 16.2 21.25 16.2C20.2835 16.2 19.5 15.4164 19.5 14.45C19.5 13.4835 20.2835 12.7 21.25 12.7C22.2165 12.7 23 13.4835 23 14.45Z" fill="#4E3233"/>
<path d="M12.5 14.5C12.5 15.4664 11.7165 16.25 10.75 16.25C9.7835 16.25 9 15.4664 9 14.5C9 13.5335 9.7835 12.75 10.75 12.75C11.7165 12.75 12.5 13.5335 12.5 14.5Z" fill="#4E3233"/>
<path d="M26.5 30.0001C25.664 25.1101 21.2827 21.3701 15.995 21.3701C10.7072 21.3701 6.33597 25.1101 5.5 30.0001H26.5Z" fill="#FF6723"/>
<path d="M16 24C14.896 24 14 23.0138 14 21.7987V19.2013C14 17.9862 14.896 17 16 17C17.104 17 18 17.9862 18 19.2013V21.7987C18 23.0138 17.104 24 16 24Z" fill="#452829"/>
<path d="M22.6617 8.67001C22.3459 8.09001 21.8482 7.69001 21.2835 7.49001C20.671 7.27001 20.1446 6.86001 19.8096 6.29001C19.3598 5.53001 18.5559 5.02001 17.6467 5.02001C17.2926 5.02001 16.9576 5.10001 16.6513 5.23001C16.2398 5.41001 15.7708 5.41001 15.3497 5.23001C15.0434 5.08001 14.7085 5.01001 14.3544 5.01001C13.4547 5.01001 12.6603 5.50001 12.2105 6.25001C11.8564 6.83001 11.33 7.26001 10.7079 7.49001C10.1241 7.70001 9.60729 8.13001 9.29145 8.75001C8.84163 9.65001 8.92777 10.71 9.44458 11.5C9.636 11.79 9.74128 12.13 9.74128 12.48V17.12C9.74128 18.15 10.3729 19.07 11.3013 19.41L13.3207 20.14V11.87C13.4738 11.71 13.6174 11.52 13.7323 11.32C13.9141 10.99 14.0194 10.64 14.0577 10.29C14.1534 10.3 14.2491 10.31 14.3544 10.31C14.9764 10.31 15.5507 10.07 16.0005 9.68001C16.4408 10.07 17.015 10.31 17.6467 10.31C17.7519 10.31 17.8477 10.3 17.9434 10.29C17.9816 10.64 18.0869 10.99 18.2688 11.32C18.3836 11.53 18.5176 11.71 18.6803 11.87V20.14L20.6997 19.41C21.6377 19.07 22.2597 18.15 22.2597 17.12V12.49C22.2597 12.14 22.365 11.8 22.5564 11.51C23.0828 10.69 23.169 9.59001 22.6617 8.67001Z" fill="black"/>
<path d="M10.4633 18.0499L10.0346 11.6099C9.87332 10.2212 10.2854 8.9587 11.0725 8.01991H15.92C16.23 8.00991 16.5 8.19991 16.62 8.48991C17.07 9.47991 18.05 10.1099 19.13 10.1099H20.8239C21.3131 10.1636 21.7349 10.4292 21.997 10.8125C22.0065 11.0741 21.9934 11.3405 21.9558 11.6099L21.5475 18.0499C21.2516 20.2399 19.3429 21.8799 17.0873 21.8799H14.9235C12.6679 21.8799 10.7593 20.2399 10.4633 18.0499Z" fill="#573739"/>
<path d="M12.0625 12.9803C12.1225 13.0603 12.2225 13.1003 12.3125 13.1003C12.3725 13.1003 12.4425 13.0803 12.5025 13.0303C12.5025 13.0303 13.1725 12.5203 14.1625 12.6403C14.3425 12.6603 14.4925 12.5403 14.5125 12.3703C14.5325 12.2003 14.4125 12.0403 14.2425 12.0203C13.0002 11.8811 12.1727 12.5026 12.1233 12.5397L12.1225 12.5403C11.9825 12.6503 11.9625 12.8403 12.0625 12.9803Z" fill="black"/>
<path d="M19.9126 13.0402C19.9726 13.0802 20.0326 13.1002 20.1026 13.1002C20.2026 13.1002 20.2926 13.0602 20.3426 12.9902C20.4426 12.8502 20.4226 12.6502 20.2826 12.5502L20.2815 12.5494C20.2293 12.5102 19.3928 11.8814 18.1626 12.0302C17.9926 12.0502 17.8726 12.2102 17.8926 12.3802C17.9126 12.5502 18.0626 12.6702 18.2426 12.6502C19.1395 12.5404 19.7851 12.9583 19.8958 13.0299C19.906 13.0366 19.9126 13.0402 19.9126 13.0402Z" fill="black"/>
<path d="M15.5923 14.3163L15.0262 16.2163C14.9111 16.6063 15.1893 16.9963 15.5827 16.9963H16.4173C16.8107 16.9963 17.0889 16.5963 16.9738 16.2063L16.4077 14.3063C16.283 13.8963 15.717 13.8963 15.5923 14.3163Z" fill="#3D2123"/>
<path d="M16.01 18.0199C15.3815 18.0199 14.7844 17.8799 14.2816 17.6199C14.114 17.5299 13.9254 17.7199 14.0302 17.8699C14.4492 18.4899 15.172 18.8899 15.9995 18.8899C16.827 18.8899 17.5498 18.4799 17.9688 17.8699C18.0735 17.7199 17.8955 17.5299 17.7174 17.6199C17.2251 17.8699 16.6385 18.0199 16.01 18.0199Z" fill="#290118"/>
<path d="M11.8655 2H8.5L8.50999 13.61C8.50999 14.23 8.98935 14.76 9.60852 14.78C10.2577 14.8 10.7869 14.28 10.7869 13.64V10.45C10.7869 9.73 11.6558 9.37 12.1651 9.88L12.8043 10.53C13.2636 10.98 14.0027 10.97 14.4421 10.49C14.8615 10.04 14.8315 9.33 14.3921 8.89L12.5746 7.07C12.1252 6.61 11.8655 6 11.8655 5.35V2Z" fill="#341A1C"/>
<path d="M20.1345 2H23.5L23.49 13.6C23.49 14.22 23.0107 14.75 22.3915 14.77C21.7423 14.79 21.2131 14.27 21.2131 13.63V10.44C21.2131 9.72 20.3542 9.36 19.8449 9.87L19.1957 10.52C18.7463 10.98 17.9973 10.97 17.5579 10.49C17.1385 10.04 17.1684 9.33 17.6079 8.89L19.4254 7.07C19.8748 6.61 20.1345 6 20.1345 5.35V2Z" fill="#341A1C"/>
<path d="M14.4088 14.14C14.4671 14.08 14.5449 14.04 14.6227 14.04C14.8657 14.04 14.9921 14.32 14.8366 14.51C14.5255 14.88 14.0685 15.11 13.5727 15.11C13.0769 15.11 12.6297 14.88 12.3186 14.51C12.1631 14.32 12.2894 14.04 12.5228 14.04C12.6103 14.04 12.6783 14.08 12.7367 14.14C12.9408 14.38 13.2422 14.53 13.5727 14.53C13.9033 14.53 14.2047 14.38 14.4088 14.14Z" fill="black"/>
<path d="M19.26 14.14C19.3183 14.08 19.3961 14.04 19.4739 14.04C19.7072 14.04 19.8336 14.32 19.6878 14.51C19.3767 14.88 18.9197 15.11 18.4239 15.11C17.9281 15.11 17.4809 14.88 17.1698 14.51C17.0143 14.32 17.1406 14.04 17.374 14.04C17.4615 14.04 17.5295 14.08 17.5878 14.14C17.792 14.38 18.0934 14.53 18.4239 14.53C18.7545 14.53 19.0558 14.38 19.26 14.14Z" fill="black"/>
</svg>

<svg xmlns="http://www.w3.org/2000/svg" width="32" height="32" fill="none"><path fill="#4E3233" d="M23 14.45a1.75 1.75 0 1 1-3.5 0 1.75 1.75 0 0 1 3.5 0ZM12.5 14.5a1.75 1.75 0 1 1-3.5 0 1.75 1.75 0 0 1 3.5 0Z"/><path fill="#FF6723" d="M26.5 30c-.836-4.89-5.217-8.63-10.505-8.63-5.288 0-9.659 3.74-10.495 8.63h21Z"/><path fill="#452829" d="M16 24c-1.104 0-2-.986-2-2.201V19.2c0-1.215.896-2.201 2-2.201s2 .986 2 2.201V21.8C18 23.014 17.104 24 16 24Z"/><path fill="#000" d="M22.662 8.67a2.519 2.519 0 0 0-1.378-1.18 2.78 2.78 0 0 1-1.474-1.2c-.45-.76-1.254-1.27-2.163-1.27-.354 0-.69.08-.996.21-.411.18-.88.18-1.301 0a2.238 2.238 0 0 0-.996-.22c-.9 0-1.694.49-2.143 1.24-.355.58-.881 1.01-1.503 1.24-.584.21-1.1.64-1.417 1.26-.45.9-.363 1.96.154 2.75.191.29.296.63.296.98v4.64c0 1.03.632 1.95 1.56 2.29l2.02.73v-8.27c.153-.16.296-.35.411-.55.182-.33.287-.68.326-1.03.095.01.191.02.296.02.622 0 1.197-.24 1.646-.63.44.39 1.015.63 1.647.63.105 0 .2-.01.296-.02.039.35.144.7.326 1.03.115.21.249.39.411.55v8.27l2.02-.73c.938-.34 1.56-1.26 1.56-2.29v-4.63c0-.35.105-.69.296-.98a2.79 2.79 0 0 0 .106-2.84Z"/><path fill="#573739" d="m10.463 18.05-.428-6.44c-.162-1.389.25-2.651 1.037-3.59h4.848c.31-.01.58.18.7.47.45.99 1.43 1.62 2.51 1.62h1.694c.49.054.91.32 1.173.703.01.261-.004.527-.041.797l-.409 6.44c-.295 2.19-2.204 3.83-4.46 3.83h-2.163c-2.256 0-4.165-1.64-4.46-3.83Z"/><path fill="#000" d="M12.063 12.98c.06.08.16.12.25.12.06 0 .13-.02.19-.07 0 0 .67-.51 1.66-.39.18.02.33-.1.35-.27.02-.17-.1-.33-.27-.35-1.243-.139-2.07.483-2.12.52-.14.11-.16.3-.06.44ZM19.913 13.04c.06.04.12.06.19.06.1 0 .19-.04.24-.11.1-.14.08-.34-.06-.44h-.002c-.052-.04-.888-.669-2.118-.52-.17.02-.29.18-.27.35.02.17.17.29.35.27.897-.11 1.542.308 1.653.38l.017.01Z"/><path fill="#3D2123" d="m15.592 14.316-.566 1.9c-.115.39.163.78.557.78h.834c.394 0 .672-.4.557-.79l-.566-1.9a.423.423 0 0 0-.816.01Z"/><path fill="#290118" d="M16.01 18.02c-.629 0-1.226-.14-1.728-.4-.168-.09-.357.1-.252.25A2.357 2.357 0 0 0 16 18.89c.827 0 1.55-.41 1.969-1.02.104-.15-.074-.34-.252-.25-.492.25-1.078.4-1.707.4Z"/><path fill="#341A1C" d="M11.866 2H8.5l.01 11.61c0 .62.48 1.15 1.099 1.17.649.02 1.178-.5 1.178-1.14v-3.19c0-.72.869-1.08 1.378-.57l.64.65c.459.45 1.198.44 1.637-.04.42-.45.39-1.16-.05-1.6l-1.817-1.82c-.45-.46-.71-1.07-.71-1.72V2ZM20.134 2H23.5l-.01 11.6c0 .62-.48 1.15-1.098 1.17-.65.02-1.179-.5-1.179-1.14v-3.19a.8.8 0 0 0-1.368-.57l-.65.65c-.449.46-1.198.45-1.637-.03-.42-.45-.39-1.16.05-1.6l1.817-1.82c.45-.46.71-1.07.71-1.72V2Z"/><path fill="#000" d="M14.409 14.14c.058-.06.136-.1.214-.1.243 0 .37.28.214.47-.312.37-.768.6-1.264.6s-.943-.23-1.254-.6c-.156-.19-.03-.47.204-.47.087 0 .155.04.214.1.204.24.505.39.836.39.33 0 .632-.15.836-.39ZM19.26 14.14c.058-.06.136-.1.214-.1.233 0 .36.28.214.47-.311.37-.768.6-1.264.6s-.943-.23-1.254-.6c-.156-.19-.03-.47.204-.47a.29.29 0 0 1 .214.1c.204.24.505.39.836.39.33 0 .632-.15.836-.39Z"/></svg>
